logo/bitbucket.svg

<?xml version="1.0" encoding="UTF-8"?>
<svg width="256px" height="231px" viewBox="0 0 256 231" version="1.1" xmlns="http://www.w3.org/2000/svg" xmlns:xlink="http://www.w3.org/1999/xlink" preserveAspectRatio="xMidYMid">
    <defs>
        <linearGradient x1="108.63338%" y1="13.818022%" x2="46.9265964%" y2="78.7761408%" id="linearGradient-1">
            <stop stop-color="#0052CC" offset="18%"></stop>
            <stop stop-color="#2684FF" offset="100%"></stop>
        </linearGradient>
    </defs>
    <g fill="none">
				<polygon points="101.272088 152.561281 154.720712 152.561281 167.622105 77.2417255 87.0600784 77.2417255"></polygon>
				<path d="M8.30813067,0.000683498206 C5.88502974,-0.0305685468 3.57212663,1.01125669 1.98985644,2.84669011 C0.407586248,4.68212353 -0.282086001,7.12328571 0.105843921,9.51533612 L34.9245512,220.888266 C35.8200362,226.227525 40.4199456,230.153012 45.8335925,230.197861 L212.873162,230.197861 C216.936516,230.250159 220.425595,227.319332 221.075449,223.30794 L255.894156,9.55634756 C256.282086,7.16429714 255.592414,4.72313497 254.010144,2.88770154 C252.427873,1.05226812 250.11497,0.0104428869 247.691869,0.0416949319 L8.30813067,0.000683498206 Z M154.924006,152.768274 L101.609142,152.768274 L87.1731177,77.3482475 L167.842608,77.3482475 L154.924006,152.768274 Z" fill="#2684FF"></path>
				<path d="M244.610824,77.2417255 L167.693776,77.2417255 L154.78548,152.601582 L101.513151,152.601582 L38.6108235,227.264801 C40.6045494,228.988786 43.1464609,229.94745 45.7820986,229.969396 L212.729383,229.969396 C216.789495,230.021652 220.275791,227.093164 220.925126,223.084972 L244.610824,77.2417255 Z" fill="url(#linearGradient-1)"></path>
    </g>
</svg>

<svg viewBox="0 0 256 231" xmlns="http://www.w3.org/2000/svg"><defs><linearGradient id="a" x1="108.633%" x2="46.926%" y1="13.818%" y2="78.776%"><stop offset="18%" stop-color="#0052CC"/><stop offset="100%" stop-color="#2684FF"/></linearGradient></defs><path fill="none" d="M101.27 152.56l53.44 0 12.9-75.32 -80.57 0Z"/><path fill="#2684FF" d="M8.3 0C5.87-.04 3.56 1.01 1.98 2.84 .39 4.67-.3 7.11.09 9.5L34.9 220.87c.89 5.33 5.49 9.26 10.9 9.3h167.03c4.06.05 7.55-2.88 8.2-6.89L255.84 9.52c.38-2.4-.31-4.84-1.89-6.67 -1.59-1.84-3.9-2.88-6.32-2.85L8.24-.05Zm146.61 152.76h-53.32L87.15 77.33h80.66l-12.92 75.42Z"/><path fill="url(#a)" d="M244.61 77.24h-76.92l-12.91 75.35H101.5l-62.91 74.66c1.99 1.72 4.53 2.68 7.17 2.7H212.7c4.06.05 7.54-2.88 8.19-6.89l23.68-145.85Z"/></svg>
